tools/download-figma-icons/icons/solid/food-3.svg

<svg width="24" height="24" viewBox="0 0 24 24" fill="none" xmlns="http://www.w3.org/2000/svg">
<path fill-rule="evenodd" clip-rule="evenodd" d="M17.7875 12.4484C16.352 10.7414 13.9498 9.53991 12.5729 10.6979C11.1974 11.8551 11.9661 14.4276 13.4031 16.136C14.5393 17.4868 15.8585 17.8137 16.9603 17.3645L21.2854 23.3861C21.7924 24.0919 22.7989 24.2029 23.4611 23.6456C24.1241 23.0884 24.1879 22.0782 23.5796 21.4579L18.3882 16.1638C19.0205 15.1543 18.9245 13.7998 17.7875 12.4484ZM18.4332 22.1125C16.5718 23.3013 14.3676 23.9995 11.9999 23.9995C5.38351 23.9995 0.000122068 18.6169 0.000122068 11.9998C0.000122068 5.38339 5.38276 0 11.9999 0C18.6155 0 23.9996 5.38339 23.9996 11.9998C23.9996 14.3742 23.4784 16.3519 22.3392 18.1429L20.063 15.8217C20.429 14.4192 20.0097 12.8675 18.845 11.483C17.7298 10.1563 15.8211 8.73957 13.8103 8.73957C12.9404 8.73957 12.1469 9.02007 11.5176 9.55031C9.89767 10.9115 9.57443 14.021 12.1649 17.1012C13.2239 18.3604 14.5543 19.0541 15.9118 19.0541C16.0183 19.0541 16.1225 19.0496 16.2275 19.0414L18.4332 22.1125Z" fill="black"/>
</svg>

<svg width="24" height="24" viewBox="0 0 24 24" fill="none" xmlns="http://www.w3.org/2000/svg"><path fill-rule="evenodd" clip-rule="evenodd" d="M17.788 12.448c-1.436-1.707-3.838-2.908-5.215-1.75-1.376 1.157-.607 3.73.83 5.438 1.136 1.35 2.455 1.678 3.557 1.229l4.325 6.021a1.496 1.496 0 0 0 2.176.26c.663-.558.727-1.568.119-2.188l-5.192-5.294c.632-1.01.536-2.364-.6-3.716Zm.645 9.665A11.913 11.913 0 0 1 12 24C5.384 24 0 18.617 0 12S5.383 0 12 0c6.616 0 12 5.383 12 12 0 2.374-.522 4.352-1.66 6.143l-2.277-2.321c.366-1.403-.053-2.954-1.218-4.339-1.115-1.327-3.024-2.743-5.035-2.743-.87 0-1.663.28-2.292.81-1.62 1.361-1.944 4.471.647 7.551 1.059 1.26 2.39 1.953 3.747 1.953.106 0 .21-.004.315-.013l2.206 3.072Z" fill="currentColor"/></svg>
